!!!SOCIAL_FUNCTION:	pipe dance songs
!!!PDT:	1913
!!!OTL: No_173_Why_I.krn
!!!REG: Great_Lakes
!!!LANG: Non-Tone
!!!LING_GROUP: Algonquin
**kern	**kern
*staff2	*staff1
=1-	=1-
*clefF4	*clefF4
*k[b-e-a-d-g-]	*k[b-e-a-d-g-]
*M2/4	*M2/4
12GG-^/	4f\
12r	.
12GG-/	.
12GG-^/	4f\
12r	.
12GG-/	.
=2||	=2||
*M3/4	*M3/4
2.r	4f\
.	4d-\
.	4f\
=3	=3
2.r	[2.d-\
=4	=4
2.r	2.d-\]
=5||	=5||
*M2/4	*M2/4
2r	4.c\
.	8d-\
=6	=6
2r	4d-\
.	4d-\
=7	=7
2r	2d-\
=8	=8
2r	[2A-\
=9	=9
2r	2A-\]
=10	=10
2r	4.d-\
.	8d-\
=11	=11
2r	4d-\
.	4c\
=12	=12
2r	2d-\
=13	=13
2r	[2F\
=14	=14
2r	2F\]
=15	=15
2r	4.d-\
.	8d-\
=16	=16
2r	4d-\
.	4c\
=17	=17
2r	2d-\
==	==
*-	*-
